X:1
T:Derriere les carreaux
C:Frederic Paris
A:France 
F:http://simonwascher.info
Z:abc transcription Simon Wascher
M:2/4
L:1/16
K:Dm
A2A2 A3G | FGABG4 | E2G2 FAFD | EGFE FEDA |
A2A2 A3G | FGABG4 | E2G2 FAFD | EGFED4 :|
K:D dorisch
|:\
A2A2 dcde | c2BAG4 | A4DEFA | G2FE FED2 |
A2A2 dcde | c2BAG4 | A4DEFA | G2FED4 :|
%%wordsfont Times-Italic 11pt
W:aus Simon Waschers TradArchiv
